tools/download-figma-icons/icons/solid/surface-25.svg

<svg width="24" height="24" viewBox="0 0 24 24" fill="none" xmlns="http://www.w3.org/2000/svg">
<path d="M23.604 11.3389L12.3885 5.33888C12.1672 5.22038 11.9025 5.22038 11.6812 5.33888L0.39975 11.3374C0.15375 11.4671 0 11.7221 0 11.9996C0 12.2771 0.153 12.5321 0.3975 12.6626L5.9745 15.6281C5.991 15.6386 6.0045 15.6536 6.0225 15.6626L11.664 18.6626C11.7743 18.7211 11.8957 18.7504 12.0165 18.7504C12.0195 18.7504 12.0225 18.7496 12.0255 18.7496C12.0285 18.7496 12.0315 18.7504 12.0345 18.7504C12.156 18.7504 12.2775 18.7211 12.3885 18.6619L23.604 12.6619C23.8477 12.5314 24 12.2771 24 12.0004C24 11.7236 23.8477 11.4694 23.604 11.3389ZM17.6332 14.1536L12.3705 11.3381C12.1493 11.2196 11.8845 11.2196 11.6632 11.3381L6.384 14.1454L2.35125 12.0011L12.0345 6.84938L21.66 11.9989L17.634 14.1529L17.6332 14.1536Z" fill="black"/>
</svg>

<svg xmlns="http://www.w3.org/2000/svg" width="24" height="24" fill="none" viewBox="0 0 24 24"><path fill="currentColor" d="m23.604 11.339-11.215-6a.75.75 0 0 0-.708 0L.4 11.337a.749.749 0 0 0-.003 1.326l5.578 2.965c.016.01.03.026.048.035l5.641 3c.11.058.232.087.353.087h.018a.76.76 0 0 0 .354-.088l11.215-6a.75.75 0 0 0 0-1.323m-5.97 2.815-5.264-2.816a.75.75 0 0 0-.707 0l-5.279 2.807-4.033-2.144 9.683-5.152L21.66 12z"/></svg>
